X:365
T: Jeder fr sich (94), S. 241
N: T0254
O: Luxemburg
S: Singendes Volk, Esch-Alzette 1937 posth.]
N: Merzig, hhh Anton Koob, Liederheft, 1861
R: Liebeslieder]
M: 3/4
L: 1/8
K: G
GG | G2D2B2 | B2G2dd | d2c2B2 | B2A2
ed | d4G2 | G2G2ed | d4G2 | G2G2
GG | e4e2 | edd2
Bd | d2c2Ac | c2B2

